src/resources/svg/not-connected.svg

<svg fill="none" height="64" viewBox="0 0 49 64" width="49" xmlns="http://www.w3.org/2000/svg" xmlns:xlink="http://www.w3.org/1999/xlink"><linearGradient id="a"><stop offset="0" stop-color="#ff9574"/><stop offset="1" stop-color="#ff4c8c"/></linearGradient><linearGradient id="b" gradientUnits="userSpaceOnUse" x1="0" x2="48.212" xlink:href="#a" y1="41.551" y2="41.551"/><linearGradient id="c" gradientUnits="userSpaceOnUse" x1="20" x2="28" xlink:href="#a" y1="15.469" y2="15.469"/><linearGradient id="d" gradientUnits="userSpaceOnUse" x1="16" x2="32" xlink:href="#a" y1="5.388" y2="5.388"/><path clip-rule="evenodd" d="m24.1058 20h-5.4783c-.3269 0-.6331.1597-.8201.4278l-14.70155 21.0722c-3.271638 4.3126-6.35751 13.747 4.09722 20.2761 2.76049 1.724 6.07703 2.2239 9.33163 2.2239h7.5711 7.5711c3.2546 0 6.5712-.4999 9.3317-2.2239 10.4547-6.5291 7.3689-15.9635 4.0972-20.2761l-14.7015-21.0722c-.187-.2681-.4933-.4278-.8201-.4278z" fill="url(#b)" fill-rule="evenodd"/><rect fill="url(#c)" height="3" rx="1.5" width="8" x="20" y="14"/><path d="m24.4511 11h-.9022c-.3419 0-.6601-.1747-.8436-.4631l-5.7273-9.00002c-.4236-.66573.0546-1.53688.8437-1.53688h12.3566c.7891 0 1.2673.871153.8437 1.53688l-5.7273 9.00002c-.1835.2884-.5017.4631-.8436.4631z" fill="url(#d)"/><path d="m18 51v-.3274h.4283c.3743 0 .6598-.0531.8565-.1593.203-.1121.3521-.2626.4473-.4514.0571-.1238.0856-.4955.0856-1.115v-7.8938c0-.6136-.0349-.9971-.1047-1.1504-.0698-.1534-.2125-.2862-.4282-.3983-.2094-.118-.4949-.177-.8565-.177h-.4283v-.3274h5.7767c1.5417 0 2.7821.1947 3.7211.5841 1.1484.4778 2.0176 1.2006 2.6076 2.1681.5964.9676.8946 2.062.8946 3.2832 0 .8437-.1459 1.6224-.4378 2.3363-.2918.7079-.6693 1.295-1.1325 1.761-.4631.4602-.9992.8319-1.6083 1.1151-.6028.2773-1.3419.4926-2.2174.646-.3871.0708-.9961.1062-1.8273.1062zm4.9202-11.3186v9.3628c0 .4956.0254.7995.0761.9116.0508.112.1364.1976.257.2566.1713.0885.4187.1327.7423.1327 1.0595 0 1.8685-.3363 2.4268-1.0088.7613-.9086 1.142-2.3186 1.142-4.2301 0-1.5398-.2601-2.7699-.7804-3.6903-.4124-.7197-.9421-1.2094-1.5893-1.469-.4568-.1829-1.215-.2714-2.2745-.2655z" fill="#000" fill-opacity=".1"/></svg>

<svg width="49" height="64" viewBox="0 0 49 64" fill="none" xmlns="http://www.w3.org/2000/svg">
<path fill-rule="evenodd" clip-rule="evenodd" d="M24.1058 20H18.6275C18.3006 20 17.9944 20.1597 17.8074 20.4278L3.10585 41.5C-0.165788 45.8126 -3.25166 55.247 7.20307 61.7761C9.96356 63.5001 13.2801 64 16.5347 64H24.1058H24.1058H31.6769C34.9315 64 38.2481 63.5001 41.0086 61.7761C51.4633 55.247 48.3775 45.8126 45.1058 41.5L30.4043 20.4278C30.2173 20.1597 29.911 20 29.5842 20H24.1058H24.1058Z" fill="url(#paint0_linear_16_477)"/>
<rect x="20" y="14" width="8" height="3" rx="1.5" fill="url(#paint1_linear_16_477)"/>
<path d="M24.4511 11H23.5489C23.207 11 22.8888 10.8253 22.7053 10.5369L16.978 1.53688C16.5544 0.87115 17.0326 0 17.8217 0H30.1783C30.9674 0 31.4456 0.871153 31.022 1.53688L25.2947 10.5369C25.1112 10.8253 24.793 11 24.4511 11Z" fill="url(#paint2_linear_16_477)"/>
<path d="M18 51V50.6726H18.4283C18.8026 50.6726 19.0881 50.6195 19.2848 50.5133C19.4878 50.4012 19.6369 50.2507 19.7321 50.0619C19.7892 49.9381 19.8177 49.5664 19.8177 48.9469V41.0531C19.8177 40.4395 19.7828 40.056 19.713 39.9027C19.6432 39.7493 19.5005 39.6165 19.2848 39.5044C19.0754 39.3864 18.7899 39.3274 18.4283 39.3274H18V39H23.7767C25.3184 39 26.5588 39.1947 27.4978 39.5841C28.6462 40.0619 29.5154 40.7847 30.1054 41.7522C30.7018 42.7198 31 43.8142 31 45.0354C31 45.8791 30.8541 46.6578 30.5622 47.3717C30.2704 48.0796 29.8929 48.6667 29.4297 49.1327C28.9666 49.5929 28.4305 49.9646 27.8214 50.2478C27.2186 50.5251 26.4795 50.7404 25.604 50.8938C25.2169 50.9646 24.6079 51 23.7767 51H18ZM22.9202 39.6814V49.0442C22.9202 49.5398 22.9456 49.8437 22.9963 49.9558C23.0471 50.0678 23.1327 50.1534 23.2533 50.2124C23.4246 50.3009 23.672 50.3451 23.9956 50.3451C25.0551 50.3451 25.8641 50.0088 26.4224 49.3363C27.1837 48.4277 27.5644 47.0177 27.5644 45.1062C27.5644 43.5664 27.3043 42.3363 26.784 41.4159C26.3716 40.6962 25.8419 40.2065 25.1947 39.9469C24.7379 39.764 23.9797 39.6755 22.9202 39.6814Z" fill="black" fill-opacity="0.1"/>
<defs>
<linearGradient id="paint0_linear_16_477" x1="-1.72197e-07" y1="41.551" x2="48.2117" y2="41.551" gradientUnits="userSpaceOnUse">
<stop stop-color="#FF9574"/>
<stop offset="1" stop-color="#FF4C8C"/>
</linearGradient>
<linearGradient id="paint1_linear_16_477" x1="20" y1="15.4694" x2="28" y2="15.4694" gradientUnits="userSpaceOnUse">
<stop stop-color="#FF9574"/>
<stop offset="1" stop-color="#FF4C8C"/>
</linearGradient>
<linearGradient id="paint2_linear_16_477" x1="16" y1="5.38776" x2="32" y2="5.38776" gradientUnits="userSpaceOnUse">
<stop stop-color="#FF9574"/>
<stop offset="1" stop-color="#FF4C8C"/>
</linearGradient>
</defs>
</svg>
